X:1
T:Száraz tónak nedves partján
O:Magyar népdal
M:2/4
L:1/8
K:C
GGAA | GGFF | EEDD | CCC z | 
w:Szá-raz tó-nak ned-ves part-ján dög-lött bé-ka ku-ruty-tyol,
GGAA | GGFF | EEDD | CCC z | 
w:Hall-gat-ja egy sü-ket em-ber ki a víz-ben lu-bic-kol.
|: c2d2 | cAG2 | FFEE | DDC2 :| 
w: Sej, haj, de-ne-vér, ben-nünk van a ku-tya-vér.

